hw8Responsive/images/logos/contentlogo/bluebox/baseline-add_to_home_screen-24px.svg

<svg width="40" height="40" viewBox="0 0 40 40" fill="none" xmlns="http://www.w3.org/2000/svg">
<path d="M30 1.68341L13.3333 1.66675C11.5 1.66675 10 3.16675 10 5.00008V10.0001H13.3333V8.33342H30V31.6667H13.3333V30.0001H10V35.0001C10 36.8334 11.5 38.3334 13.3333 38.3334H30C31.8333 38.3334 33.3333 36.8334 33.3333 35.0001V5.00008C33.3333 3.16675 31.8333 1.68341 30 1.68341ZM16.6667 25.0001H20V13.3334H8.33333V16.6667H14.3167L5 25.9834L7.35 28.3334L16.6667 19.0167V25.0001Z" fill="white"/>
</svg>

<svg width="40" height="40" fill="none" xmlns="http://www.w3.org/2000/svg"><path d="M30 1.683l-16.667-.016A3.343 3.343 0 0010 5v5h3.333V8.333H30v23.334H13.333V30H10v5c0 1.833 1.5 3.333 3.333 3.333H30c1.833 0 3.333-1.5 3.333-3.333V5c0-1.833-1.5-3.317-3.333-3.317zM16.667 25H20V13.333H8.333v3.334h5.984L5 25.983l2.35 2.35 9.317-9.316V25z" fill="#fff"/></svg>
